src/main/resources/icons/AllIcons/fileTypes/addAny.svg

<svg xmlns="http://www.w3.org/2000/svg" width="16" height="16" viewBox="0 0 16 16"><rect id="frame" width="16" height="16" fill="none"/><g fill="#9AA7B0" fill-rule="evenodd"><path fill-opacity=".8" d="M7 1L3 5h4z"/><path fill-opacity=".8" d="M10 14v1H3V6h5V1h5v6h-3v3H7v4h3z"/><path d="M13 11h3v2h-3v3h-2v-3H8v-2h3V8h2v3z"/></g></svg>

<!-- Copyright 2000-2021 JetBrains s.r.o. Use of this source code is governed by the Apache 2.0 license that can be found in the LICENSE file. -->
<svg xmlns="http://www.w3.org/2000/svg" width="16" height="16" viewBox="0 0 16 16">
  <g fill="none" fill-rule="evenodd">
    <polygon fill="#9AA7B0" fill-opacity=".8" points="7 1 3 5 7 5"/>
    <path fill="#9AA7B0" fill-opacity=".8" d="M10,14 L10,15 L3,15 L3,6 L8,6 L8,1 L13,1 L13,7 L10,7 L10,10 L7,10 L7,14 L10,14 Z"/>
    <path fill="#9AA7B0" d="M13,11 L16,11 L16,13 L13,13 L13,16 L11,16 L11,13 L8,13 L8,11 L11,11 L11,8 L13,8 L13,11 Z"/>
  </g>
</svg>
